assets/img/common/bg-cta.svg

<svg width="780" height="432" viewBox="0 0 780 432" fill="none" xmlns="http://www.w3.org/2000/svg">
<g clip-path="url(#clip0_2827_9567)">
<path opacity="0.1" fill-rule="evenodd" clip-rule="evenodd" d="M373.887 454.128C281.1 448.39 199.136 400.875 161.436 320.056C160.923 319.128 160.68 318.328 160.136 317.424L159.9 316.752V316.623L159.656 316.224L159.356 315.44C132.499 254.544 135.612 186.335 162.193 123.993V123.744L163.786 120.328L164.029 119.791C164.519 118.751 165.053 117.687 165.543 116.518L165.842 115.863L167.379 112.719V112.318C168.168 111.134 168.655 110.094 169.192 108.918L169.428 108.517C171.754 103.795 174.085 99.1862 176.678 94.6103L177.168 93.9365C177.467 93.1688 177.98 92.3611 178.524 91.5934C178.737 91.0557 179.013 90.5369 179.224 90.0156C179.768 89.3676 180.037 88.6797 180.58 88.0411C180.793 87.4002 181.313 86.8554 181.604 86.2145C182.093 85.5665 182.361 84.888 182.904 84.24C183.117 83.7188 183.661 83.0708 183.928 82.5425C184.417 81.8945 184.684 81.2231 185.197 80.5821C185.441 79.9271 185.977 79.3988 186.467 78.7508C186.79 78.0605 187.279 77.5417 187.49 76.8937C188.034 76.2527 188.303 75.5883 188.846 74.9497L190.116 73.2193C190.36 72.5807 190.903 71.9163 191.393 71.2753C191.66 70.6038 192.205 70.0755 192.416 69.5473C192.997 68.8877 193.529 68.187 194.009 67.4507C194.499 66.9318 194.742 66.4106 195.065 65.8824C195.555 65.2273 196.089 64.5793 196.579 63.7693C197.122 63.2504 197.366 62.7527 197.855 62.2338C198.392 61.4262 198.912 60.7782 199.448 59.9846C199.937 59.6019 200.174 59.0807 200.472 58.6816C201.495 57.5053 202.228 56.3126 203.278 55.1363L258.339 172.718C254.746 190.538 252.933 208.797 252.933 227.417C252.933 293.417 276.164 356.529 319.081 406.15L319.617 406.669C320.406 407.59 321.43 408.487 322.163 409.294L322.463 409.543L323.187 410.752L324.78 412.32C325.513 412.976 326.056 413.753 326.536 414.41L326.86 414.563L327.56 415.33C328.106 415.978 328.909 416.65 329.406 417.188L329.642 417.556L330.422 418.347L331.233 419.132L332.746 420.573L334.589 422.43L335.615 423.487L336.883 424.656L337.672 425.44L338.452 426.081L340.265 427.938L340.752 428.187L341.565 428.988L342.841 430.171C343.408 430.692 343.898 431.098 344.654 431.627V431.746C345.465 432.387 346.191 433.066 346.978 433.843L348.814 435.282L350.571 436.738L351.351 437.522C351.897 438.043 352.377 438.442 352.921 438.811L353.188 438.964L354.214 439.748L354.701 440.147C355.244 440.546 355.727 440.915 356.27 441.436L357.074 442.124C358.097 442.892 359.13 443.54 359.863 444.347H360.163C364.583 447.7 369.233 450.98 373.892 454.126L373.887 454.128ZM1.67458 343.262C38.6742 315.174 89.6131 299.97 145.162 301.282C147.242 307.187 149.535 312.949 152.112 318.854L152.655 320.063L152.892 320.83C153.435 321.751 153.702 322.688 154.192 323.575C195.564 412.156 285.503 458.328 379.078 462.529C325.803 496.793 249.277 507.299 172.064 485.11C89.0768 461.242 26.2856 405.843 1.67458 343.262ZM383.209 469.363C367.148 497.962 343.917 521.072 313.899 535.22C255.008 563.051 185.748 548.48 131.719 503.86L160.923 490.2C163.783 491.128 166.896 492.064 169.71 492.832C209.789 504.379 252.132 508.077 293.268 501.89C324.798 497.321 356.305 486.817 383.209 469.363ZM406.228 454.128C498.98 448.39 580.922 400.875 618.645 320.056C619.158 319.128 619.425 318.328 619.915 317.424L620.238 316.752V316.623L620.451 316.224L620.718 315.44C647.599 254.544 644.486 186.335 617.858 123.993V123.744C617.369 122.545 616.832 121.488 616.345 120.328L616.078 119.791C615.532 118.751 615.052 117.687 614.745 116.518L614.232 115.863L612.665 112.719V112.318C612.176 111.134 611.396 110.094 610.876 108.918V108.517L603.357 94.6103L603.123 93.9365C602.618 93.1485 602.102 92.3673 601.577 91.5933C601.363 91.0557 601.04 90.5368 600.82 90.0156C600.33 89.3676 600.017 88.6797 599.527 88.0411C599.283 87.4001 598.74 86.8554 598.503 86.2145C598.267 85.5735 597.691 84.888 597.203 84.24C596.934 83.7188 596.447 83.0708 596.18 82.5425C595.634 81.8945 595.398 81.223 594.854 80.5821C594.61 79.927 594.121 79.3988 593.83 78.7508C593.31 78.0605 592.774 77.5416 592.554 76.8936C592.064 76.2527 591.75 75.5883 591.254 74.9496L589.961 73.2193C589.694 72.5807 589.204 71.9163 588.661 71.2753C588.394 70.6038 587.904 70.0755 587.605 69.5473C587.117 68.9063 586.581 68.2583 586.068 67.4507C585.855 66.9318 585.311 66.4106 585.044 65.8824C584.484 65.2062 583.961 64.5008 583.475 63.7693C582.988 63.2504 582.751 62.7527 582.208 62.2338C581.695 61.4262 581.151 60.7781 580.669 59.9846C580.125 59.6019 579.912 59.0807 579.645 58.6815C578.622 57.5053 577.802 56.3126 576.776 55.1363L521.717 172.718C525.364 190.538 527.444 208.797 527.444 227.417C527.444 293.417 503.899 356.529 460.98 406.15L460.493 406.669C459.736 407.59 458.703 408.486 457.893 409.294L457.623 409.543L456.867 410.752L455.354 412.32C454.817 412.976 454.007 413.753 453.517 414.41L453.25 414.563L452.493 415.33C451.95 415.978 451.194 416.65 450.65 417.188L450.437 417.556L449.624 418.347L448.9 419.132L447.301 420.573L445.488 422.43L444.431 423.487L443.187 424.656L442.375 425.44L441.641 426.081L439.831 427.938L439.285 428.187L438.528 428.988L437.205 430.171C436.718 430.692 436.149 431.098 435.448 431.627V431.746C434.635 432.387 433.848 433.066 433.068 433.843L429.466 436.738L428.686 437.522C428.199 438.043 427.662 438.442 427.173 438.811L426.85 438.964L425.826 439.748L425.336 440.147C424.849 440.546 424.313 440.915 423.826 441.436L423.013 442.124C421.989 442.892 420.956 443.54 420.153 444.347H419.933C415.527 447.7 410.821 450.982 406.228 454.128ZM778.353 343.262C741.44 315.174 690.492 299.97 634.95 301.282C632.863 307.187 630.514 312.949 627.944 318.854L627.401 320.063L627.164 320.83C626.677 321.751 626.408 322.688 625.864 323.575C584.485 412.156 494.576 458.328 401.278 462.529C454.283 496.793 530.786 507.299 608.07 485.11C690.981 461.24 753.796 405.845 778.353 343.262ZM396.889 469.363C412.901 497.962 436.135 521.072 466.142 535.22C525.097 563.051 594.357 548.48 648.386 503.86L619.151 490.2C616.345 491.128 613.202 492.064 610.363 492.832C570.316 504.379 527.917 508.077 486.837 501.89C455.33 497.321 424.022 486.817 396.889 469.363ZM390.166 3.5773e-06L396.898 4.20026C397.142 4.32 397.685 4.60176 397.922 4.85767C442.277 33.1081 477.131 74.0759 497.956 122.439C509.045 148.413 512.394 158.791 508.555 187.774C504.655 218.613 490.983 242.493 472.101 259.296C473.401 253.272 473.935 247.095 473.935 240.788C473.935 193.679 436.465 155.487 390.166 155.487C343.657 155.487 306.167 193.679 306.167 240.788C306.167 247.095 306.657 253.272 308.013 259.296C289.139 242.493 275.403 218.613 271.557 187.774C267.657 158.791 271.313 148.413 282.156 122.439C303.08 73.7381 338.234 32.8156 382.16 4.85767C382.427 4.59237 382.917 4.32 383.216 4.20026C385.5 2.74557 387.817 1.3451 390.166 3.5773e-06ZM390.166 163.641C432.028 163.641 466.152 198.145 466.152 240.788C466.152 250.231 464.315 259.296 461.233 267.699C440.601 282.007 415.203 289.071 390.166 289.071C364.855 289.071 339.543 281.997 318.832 267.699C315.752 259.296 314.206 250.238 314.206 240.788C314.199 198.138 348.03 163.641 390.166 163.641ZM390.166 297.209C331.481 297.209 273.07 260.991 263.527 188.814L260.691 227.392C260.691 293.793 285.002 354.407 325.295 400.739L325.815 401.26C326.328 402.164 327.382 403.084 328.139 403.885V404.141L329.195 405.181L329.975 405.981L330.464 406.636L330.732 406.756C331.275 407.404 331.757 408.076 332.521 408.733V408.853L333.064 409.252L333.334 409.651C334.088 410.306 334.634 410.956 335.177 411.604H335.39V411.886H335.657V412.006L336.201 412.541L336.69 413.062V413.182L336.927 413.311V413.464L337.224 413.584L338.25 414.624V414.76H338.494V415.032L338.984 415.401V415.553L339.55 415.802V415.931L339.764 416.084V416.335H340.031V416.601L341.057 417.385V417.514L341.844 418.185V418.305H342.08V418.554H342.38V418.836H342.624V418.972L342.867 419.101V419.254L343.104 419.383V419.503L343.917 420.15L344.13 420.423L344.94 421.207H345.177V421.489H345.477V421.728H345.69V422.01H345.957V422.259H346.193L346.737 422.947L347.226 423.196L348.006 423.844V424.125C348.55 424.525 349.306 425.046 349.85 425.431V425.703C350.58 426.356 351.349 426.966 352.152 427.527V427.8H352.386V427.919L353.689 428.84V429.089H353.956V429.208L354.223 429.377L355.249 430.265L355.485 430.537L356.272 431.185H356.539V431.314C357.085 431.714 357.565 432.106 358.109 432.507V432.627H358.352V432.892H358.589V433.148H358.835V433.284H359.132V433.566H359.378V433.686H359.615V433.815C360.158 434.214 360.639 434.615 361.182 434.984V435.137H361.449V435.386H361.686V435.522H361.932V435.674C362.955 436.442 363.742 437.09 364.799 437.764V437.9C370.833 442.42 377.036 446.707 383.397 450.752V450.736C384.423 451.391 385.453 452.055 386.51 452.576V452.56V452.712H386.746V452.849L387.772 453.49H388.016V453.619H388.316V453.771H388.552L389.339 454.426V454.546L389.606 454.675V455.206L389.819 455.358V455.889H390.089V455.358L390.356 455.206V454.675L390.623 454.546V454.426L391.403 453.771H391.649V453.619H391.885V453.49H392.129L393.153 452.849V452.712H393.452V452.56C394.509 452.048 395.532 451.391 396.565 450.743V450.726C402.922 446.705 409.111 442.423 415.117 437.891V437.754C416.14 437.083 417.227 436.435 417.984 435.665V435.512H418.253V435.376H418.52V435.127H418.79V434.975C419.546 434.606 419.813 434.207 420.303 433.805L420.6 433.676V433.557H420.837V433.275H421.083V433.139H421.319V432.883H421.617V432.747L421.853 432.617V432.498C422.343 432.099 422.879 431.697 423.366 431.305V431.169H423.69L424.416 430.521L424.716 430.249L425.683 429.361L426.006 429.192V429.072H426.219V428.823L427.519 427.903V427.783H427.733V427.511C428.545 426.976 429.325 426.328 430.112 425.687V425.414C430.869 425.029 431.412 424.51 431.902 424.109V423.827L432.689 423.179L433.225 422.93L433.959 422.242V421.994H434.258V421.712H434.502V421.463H434.771V421.343L434.982 421.191L435.795 420.406L436.008 420.134L436.819 419.486V419.366L437.055 419.237V419.085H437.355V418.819H437.599V418.538H437.845V418.289H438.081V418.169L438.861 417.497V417.368L439.885 416.584V416.319H440.152V416.063H440.452V415.781H440.688L440.934 415.532V415.38L441.468 415.011V414.739H441.714V414.603L442.738 413.562L443.005 413.443V413.29L443.218 413.161V413.041L443.761 412.52L444.251 411.985V411.865H444.574V411.583H444.811C445.298 410.935 446.087 410.294 446.624 409.63L446.891 409.231L447.378 408.832V408.712C448.134 408.057 448.711 407.383 449.167 406.735L449.437 406.615L449.98 405.96L450.737 405.16L451.76 404.12V403.864C452.784 403.063 453.573 402.152 454.36 401.239L454.85 400.718C494.953 354.378 519.234 293.762 519.234 227.371L516.365 188.793C506.988 260.963 448.57 297.204 390.166 297.188V297.209Z" fill="white"/>
</g>
<defs>
<clipPath id="clip0_2827_9567">
<rect width="432" height="780" fill="white" transform="translate(1.88833e-05 432) rotate(-90)"/>
</clipPath>
</defs>
</svg>

<svg xmlns="http://www.w3.org/2000/svg" width="780" height="432" fill="none"><g clip-path="url(#a)"><path fill="#fff" fill-rule="evenodd" d="M373.887 454.128c-92.787-5.738-174.751-53.253-212.451-134.072-.513-.928-.756-1.728-1.3-2.632l-.236-.672v-.129l-.244-.399-.3-.784c-26.857-60.896-23.744-129.105 2.837-191.447v-.249l1.593-3.416.243-.537c.49-1.04 1.024-2.104 1.514-3.273l.299-.655 1.537-3.144v-.401c.789-1.184 1.276-2.224 1.813-3.4l.236-.401c2.326-4.722 4.657-9.33 7.25-13.907l.49-.674c.299-.767.812-1.575 1.356-2.343.213-.537.489-1.056.7-1.577.544-.648.813-1.336 1.356-1.975.213-.64.733-1.186 1.024-1.826.489-.648.757-1.327 1.3-1.975.213-.521.757-1.17 1.024-1.697.489-.649.756-1.32 1.269-1.96.244-.656.78-1.184 1.27-1.832.323-.69.812-1.21 1.023-1.857.544-.641.813-1.306 1.356-1.944l1.27-1.73c.244-.64.787-1.304 1.277-1.945.267-.671.812-1.2 1.023-1.728q.872-.991 1.593-2.096c.49-.52.733-1.04 1.056-1.569.49-.655 1.024-1.303 1.514-2.113.543-.519.787-1.016 1.276-1.535.537-.808 1.057-1.456 1.593-2.25.489-.382.726-.903 1.024-1.302 1.023-1.177 1.756-2.37 2.806-3.546l55.061 117.582c-3.593 17.82-5.406 36.079-5.406 54.699 0 66 23.231 129.112 66.148 178.733l.536.519c.789.921 1.813 1.818 2.546 2.625l.3.249.724 1.209 1.593 1.568c.733.656 1.276 1.433 1.756 2.09l.324.153.7.767c.546.648 1.349 1.32 1.846 1.858l.236.368.78.791.811.785 1.513 1.441 1.843 1.857 1.026 1.057 1.268 1.169.789.784.78.641 1.813 1.857.487.249.813.801 1.276 1.183c.567.521 1.057.927 1.813 1.456v.119c.811.641 1.537 1.32 2.324 2.097l1.836 1.439 1.757 1.456.78.784c.546.521 1.026.92 1.57 1.289l.267.153 1.026.784.487.399c.543.399 1.026.768 1.569 1.289l.804.688c1.023.768 2.056 1.416 2.789 2.223h.3c4.42 3.353 9.07 6.633 13.729 9.779zM1.675 343.262c37-28.088 87.938-43.292 143.487-41.98 2.08 5.905 4.373 11.667 6.95 17.572l.543 1.209.237.767c.543.921.81 1.858 1.3 2.745 41.372 88.581 131.311 134.753 224.886 138.954-53.275 34.264-129.801 44.77-207.014 22.581-82.987-23.868-145.778-79.267-170.39-141.848m381.534 126.101c-16.061 28.599-39.292 51.709-69.31 65.857-58.891 27.831-128.151 13.26-182.18-31.36l29.204-13.66c2.86.928 5.973 1.864 8.787 2.632 40.079 11.547 82.422 15.245 123.558 9.058 31.53-4.569 63.037-15.073 89.941-32.527m23.019-15.235c92.752-5.738 174.694-53.253 212.417-134.072.513-.928.78-1.728 1.27-2.632l.323-.672v-.129l.213-.399.267-.784c26.881-60.896 23.768-129.105-2.86-191.447v-.249c-.489-1.199-1.026-2.256-1.513-3.416l-.267-.537c-.546-1.04-1.026-2.104-1.333-3.273l-.513-.655-1.567-3.144v-.401c-.489-1.184-1.269-2.224-1.789-3.4v-.401l-7.519-13.907-.234-.674q-.758-1.182-1.546-2.343c-.214-.537-.537-1.056-.757-1.577-.49-.648-.803-1.336-1.293-1.975-.244-.64-.787-1.186-1.024-1.826-.236-.642-.812-1.327-1.3-1.975-.269-.521-.756-1.17-1.023-1.697-.546-.649-.782-1.32-1.326-1.96-.244-.656-.733-1.184-1.024-1.832-.52-.69-1.056-1.21-1.276-1.857-.49-.641-.804-1.306-1.3-1.944l-1.293-1.73c-.267-.64-.757-1.304-1.3-1.945-.267-.671-.757-1.2-1.056-1.728-.488-.64-1.024-1.289-1.537-2.096-.213-.52-.757-1.04-1.024-1.569a25 25 0 0 1-1.569-2.113c-.487-.519-.724-1.016-1.267-1.535-.513-.808-1.057-1.456-1.539-2.25-.544-.382-.757-.903-1.024-1.303-1.023-1.176-1.843-2.368-2.869-3.545l-55.059 117.582c3.647 17.82 5.727 36.079 5.727 54.699 0 66-23.545 129.112-66.464 178.733l-.487.519c-.757.921-1.79 1.817-2.6 2.625l-.27.249-.756 1.209-1.513 1.568c-.537.656-1.347 1.433-1.837 2.09l-.267.153-.757.767c-.543.648-1.299 1.32-1.843 1.858l-.213.368-.813.791-.724.785-1.599 1.441-1.813 1.857-1.057 1.057-1.244 1.169-.812.784-.734.641-1.81 1.857-.546.249-.757.801-1.323 1.183c-.487.521-1.056.927-1.757 1.456v.119c-.813.641-1.6 1.32-2.38 2.097l-3.602 2.895-.78.784c-.487.521-1.024.92-1.513 1.289l-.323.153-1.024.784-.49.399c-.487.399-1.023.768-1.51 1.289l-.813.688c-1.024.768-2.057 1.416-2.86 2.223h-.22c-4.406 3.353-9.112 6.635-13.705 9.781m372.125-110.866c-36.913-28.088-87.861-43.292-143.403-41.98-2.087 5.905-4.436 11.667-7.006 17.572l-.543 1.209-.237.767c-.487.921-.756 1.858-1.3 2.745-41.379 88.581-131.288 134.753-224.586 138.954 53.005 34.264 129.508 44.77 206.792 22.581 82.911-23.87 145.726-79.265 170.283-141.848M396.889 469.363c16.012 28.599 39.246 51.709 69.253 65.857 58.955 27.831 128.215 13.26 182.244-31.36l-29.235-13.66a172 172 0 0 1-8.788 2.632c-40.047 11.547-82.446 15.245-123.526 9.058-31.507-4.569-62.815-15.073-89.948-32.527M390.166 0l6.732 4.2c.244.12.787.402 1.024.658 44.355 28.25 79.209 69.218 100.034 117.581 11.089 25.974 14.438 36.352 10.599 65.335-3.9 30.839-17.572 54.719-36.454 71.522 1.3-6.024 1.834-12.201 1.834-18.508 0-47.109-37.47-85.301-83.769-85.301-46.509 0-83.999 38.192-83.999 85.301 0 6.307.49 12.484 1.846 18.508-18.874-16.803-32.61-40.683-36.456-71.522-3.9-28.983-.244-39.361 10.599-65.335 20.924-48.7 56.078-89.623 100.004-117.581.267-.266.757-.538 1.056-.658a173 173 0 0 1 6.95-4.2m0 163.641c41.862 0 75.986 34.504 75.986 77.147 0 9.443-1.837 18.508-4.919 26.911-20.632 14.308-46.03 21.372-71.067 21.372-25.311 0-50.623-7.074-71.334-21.372-3.08-8.403-4.626-17.461-4.626-26.911-.007-42.65 33.824-77.147 75.96-77.147m0 133.568c-58.685 0-117.096-36.218-126.639-108.395l-2.836 38.578c0 66.401 24.311 127.015 64.604 173.347l.52.521c.513.904 1.567 1.824 2.324 2.625v.256l1.056 1.04.78.8.489.655.268.12c.543.648 1.025 1.32 1.789 1.977v.12l.543.399.27.399c.754.655 1.3 1.305 1.843 1.953h.213v.282h.267v.12l.544.535.489.521v.12l.237.129v.153l.297.12 1.026 1.04v.136h.244v.272l.49.369v.152l.566.249v.129l.214.153v.251h.267v.266l1.026.784v.129l.787.671v.12h.236v.249h.3v.282h.244v.136l.243.129v.153l.237.129v.12l.813.647.213.273.81.784h.237v.282h.3v.239h.213v.282h.267v.249h.236l.544.688.489.249.78.648v.281c.544.4 1.3.921 1.844 1.306v.272q1.096.981 2.302 1.824v.273h.234v.119l1.303.921v.249h.267v.119l.267.169 1.026.888.236.272.787.648h.267v.129c.546.4 1.026.792 1.57 1.193v.12h.243v.265h.237v.256h.246v.136h.297v.282h.246v.12h.237v.129c.543.399 1.024.8 1.567 1.169v.153h.267v.249h.237v.136h.246v.152c1.023.768 1.81 1.416 2.867 2.09v.136a296 296 0 0 0 18.598 12.852v-.016c1.026.655 2.056 1.319 3.113 1.84v-.016.152h.236v.137l1.026.641h.244v.129h.3v.152h.236l.787.655v.12l.267.129v.531l.213.152v.531h.27v-.531l.267-.152v-.531l.267-.129v-.12l.78-.655h.246v-.152h.236v-.129h.244l1.024-.641v-.137h.299v-.152c1.057-.512 2.08-1.169 3.113-1.817v-.017a274 274 0 0 0 18.552-12.835v-.137c1.023-.671 2.11-1.319 2.867-2.089v-.153h.269v-.136h.267v-.249h.27v-.152c.756-.369 1.023-.768 1.513-1.17l.297-.129v-.119h.237v-.282h.246v-.136h.236v-.256h.298v-.136l.236-.13v-.119c.49-.399 1.026-.801 1.513-1.193v-.136h.324l.726-.648.3-.272.967-.888.323-.169v-.12h.213v-.249l1.3-.92v-.12h.214v-.272c.812-.535 1.592-1.183 2.379-1.824v-.273c.757-.385 1.3-.904 1.79-1.305v-.282l.787-.648.536-.249.734-.688v-.248h.299v-.282h.244v-.249h.269v-.12l.211-.152.813-.785.213-.272.811-.648v-.12l.236-.129v-.152h.3v-.266h.244v-.281h.246v-.249h.236v-.12l.78-.672v-.129l1.024-.784v-.265h.267v-.256h.3v-.282h.236l.246-.249v-.152l.534-.369v-.272h.246v-.136l1.024-1.041.267-.119v-.153l.213-.129v-.12l.543-.521.49-.535v-.12h.323v-.282h.237c.487-.648 1.276-1.289 1.813-1.953l.267-.399.487-.399v-.12a11 11 0 0 0 1.789-1.977l.27-.12.543-.655.757-.8 1.023-1.04v-.256c1.024-.801 1.813-1.712 2.6-2.625l.49-.521c40.103-46.34 64.384-106.956 64.384-173.347l-2.869-38.578c-9.377 72.17-67.795 108.411-126.199 108.395z" clip-rule="evenodd" opacity=".1"/></g><defs><clipPath id="a"><path fill="#fff" d="M0 432V0h780v432z"/></clipPath></defs></svg>
